!!!!SEGMENT: Lfg2004-Partus_et_integritas.krn
!!!id: Lfg2004
!!!AGN: Motet
!!!SCT: Picker (1987)
!!!voices: 5
!!!COM: Jean de la Fage
!!!OTL: Partus et integritas
**kern	**kern	**kern	**kern	**kern
*part5	*part4	*part3	*part2	*part1
*staff5	*staff4	*staff3	*staff2	*staff1
*I"Bassus	*I"Tenor II	*I"Tenor I	*I"Altus	*I"Superius
*I'B	*I'T. II	*I'T. I	*I'A	*I'S
*clefF4	*clefGv2	*clefGv2	*clefGv2	*clefG2
*k[]	*k[]	*k[]	*k[]	*k[]
*C:	*C:	*C:	*C:	*C:
*M2/1	*M2/1	*M2/1	*M2/1	*M2/1
*met(C2)	*met(C2)	*met(C2)	*met(C2)	*met(C2)
!!section: Prima pars: Partus et integritas
!!!OMD: Prima pars: Partus et integritas
=1	=1	=1	=1	=1
!	!	!LO:TX:a:t=Canon&colon; tenor I/tenor II at the fifth	!	!
0r	0r	0r	1.e	0r
.	.	.	2e	.
=2	=2	=2	=2	=2
1.A	0r	0r	1e	0r
.	.	.	1A	.
2A	.	.	.	.
=3	=3	=3	=3	=3
1A	0r	0r	1e	1.a
1D	.	.	1f	.
.	.	.	.	2a
=4	=4	=4	=4	=4
1A	0r	0r	2e	1a
.	.	.	1f	.
1B-i	.	.	.	1d
.	.	.	4e	.
.	.	.	4d	.
=5	=5	=5	=5	=5
2A	0r	0r	1c	1a
2F	.	.	.	.
2.G	.	.	2r	1b-X
.	.	.	[2d	.
4F	.	.	.	.
=6	=6	=6	=6	=6
2.D	0r	0r	4d]	0a
.	.	.	4c	.
.	.	.	2.A	.
4E	.	.	.	.
4F	.	.	.	.
4G	.	.	4B	.
[2A	.	.	[2c	.
=7	=7	=7	=7	=7
2A]	0r	1.e	4c]	1a
.	.	.	4B	.
2.AA	.	.	4A	.
.	.	.	4G	.
.	.	.	1A	1cc
4BB	.	.	.	.
4C	.	2e	.	.
4D	.	.	.	.
=8	=8	=8	=8	=8
2E	0r	1e	1G	2b
2C	.	.	.	1cc
1F	.	1A	2r	.
.	.	.	[2d	4b
.	.	.	.	4a
=9	=9	=9	=9	=9
2E	0r	1e	4d]	1g
.	.	.	4c	.
2C	.	.	2c	.
1D	.	1f	2A	2r
.	.	.	2B	2dd
=10	=10	=10	=10	=10
[0AA	1.A	1e	4c	2cc
.	.	.	4d	.
.	.	.	4e	1a
.	.	.	4f	.
.	.	1r	4e	.
.	.	.	4A	.
.	2A	.	[2d	4g
.	.	.	.	4f
=11	=11	=11	=11	=11
1AA]	1A	2r	2d]	2e
.	.	2e	2c	2cc
1r	1D	1f	1d	2a
.	.	.	.	[2b
=12	=12	=12	=12	=12
1r	1A	2e	1c	4b]
.	.	.	.	4a
.	.	2c	.	1a
2r	1B	2d	1r	.
2G	.	2e	.	2g#i
=13	=13	=13	=13	=13
2F	1A	1f	2r	0a
2D	.	.	2d	.
2.A	1r	1e	2c	.
.	.	.	2A	.
4B	.	.	.	.
=14	=14	=14	=14	=14
2.c	2r	2r	2.e	1r
.	2A	2c	.	.
8BL	.	.	4f	.
8AJ	.	.	.	.
2G	1B-i	2d	2g	2r
2G	.	2e	2g	2g
=15	=15	=15	=15	=15
1F	2A	1f	1c	4a
.	.	.	.	4b
.	2F	.	.	4cc
.	.	.	.	4a
1r	2G	1e	2r	2b
.	2A	.	2c	[2a
=16	=16	=16	=16	=16
2r	1B-i	0r	2.d	2a]
2G	.	.	.	2g
.	.	.	4e	.
2F	1A	.	[1f	[1a
2D	.	.	.	.
=17	=17	=17	=17	=17
1F	2r	0r	2f]	1a]
.	2F	.	4e	.
.	.	.	4d	.
2C	2G	.	1e	1g
[2G	2A	.	.	.
=18	=18	=18	=18	=18
2G]	1B-i	1r	1d	2r
2G	.	.	.	2d
2F	1A	2r	1r	4d
.	.	.	.	4e
2D	.	[2d	.	4f
.	.	.	.	4g
=19	=19	=19	=19	=19
0F	0r	2d]	0r	2a
.	.	2d	.	2f
.	.	2c	.	1a
.	.	2A	.	.
=20	=20	=20	=20	=20
1E	0r	2c	2.g	1g
.	.	1B	.	.
.	.	.	4g	.
1D	.	.	2f	2.dd
.	.	2B	2d	.
.	.	.	.	4dd
=21	=21	=21	=21	=21
1r	1r	1A	1f	2cc
.	.	.	.	2a
2.C	2r	1r	1e	1cc
.	[2G	.	.	.
4C	.	.	.	.
=22	=22	=22	=22	=22
2GG	2G]	2r	1d	1b
2GG	2G	1d	.	.
2D	2F	.	2r	[1a
2D	2D	2d	[2A	.
=23	=23	=23	=23	=23
0AA	2F	2c	4A]	0a]
.	.	.	4B	.
.	1E	2A	4c	.
.	.	.	4d	.
.	.	1c	2e	.
.	2E	.	2A	.
=24	=24	=24	=24	=24
1r	1D	1B	2.d	0r
.	.	.	4d	.
2.F	1r	1A	2c	.
.	.	.	2A	.
4F	.	.	.	.
=25	=25	=25	=25	=25
2C	2r	1r	1c	2.cc
2C	1G	.	.	.
.	.	.	.	4cc
2G	.	2r	1B	2g
2G	2G	[2d	.	2g
=26	=26	=26	=26	=26
1D	2F	2d]	2A	2dd
.	2D	2d	2.f	2dd
2.D	1F	2d	.	1a
.	.	.	4e	.
.	.	2d	[2d	.
4D	.	.	.	.
=27	=27	=27	=27	=27
2AA	1E	1e	2d]	2.a
2AA	.	.	2c#i	.
.	.	.	.	4a
2.D	1D	1f	[1d	2a
.	.	.	.	2a
4C	.	.	.	.
=28	=28	=28	=28	=28
4BB	1r	0d	2d]	2b
4AA	.	.	.	.
2GG	.	.	2B	2b
2.G	2r	.	1B	[1g
.	[2G	.	.	.
4F	.	.	.	.
=29	=29	=29	=29	=29
4E	2G]	0r	2r	1g]
4D	.	.	.	.
4C	2G	.	4E	.
4BB	.	.	4D	.
2C	2G	.	4E	1r
.	.	.	4F	.
2BB	2G	.	[2G	.
=30	=30	=30	=30	=30
2AA	1A	1r	2G]	2.a
2AA	.	.	2F#i	.
.	.	.	.	4a
1GG	1B	2r	2G	[1dd
.	.	[2d	[2g	.
=31	=31	=31	=31	=31
2r	0G	2d]	2g]	2dd]
1G	.	2d	2g	2dd
.	.	2d	2g	2b
2G	.	2B	2g	2b
=32	=32	=32	=32	=32
1A	0r	1c	2e	0a
.	.	.	2e	.
1F	.	1c	1f	.
=33	=33	=33	=33	=33
1G	1r	0B	1.d	2.g
.	.	.	.	4g
1G	2r	.	.	2g
.	[2G	.	2d	2g
=34	=34	=34	=34	=34
1C	2G]	0r	2e	1g
.	2G	.	2c	.
1r	2G	.	2d	1g
.	2E	.	2e	.
=35	=35	=35	=35	=35
2r	1F	2r	0A	1cc
1FF	.	1c	.	.
.	1F	.	.	2r
2FF	.	2c	.	[2c
=36	=36	=36	=36	=36
1AA	0E	1c	2.A	2c]
.	.	.	.	2c
.	.	.	4B	.
1AA	.	1A	1c	1e
=37	=37	=37	=37	=37
1GG	0r	1B	2r	1e
.	.	.	1G	.
1GG	.	1B	.	1d
.	.	.	2G	.
=38	=38	=38	=38	=38
1D	2r	0A	2D	1d
.	1F	.	1d	.
2r	.	.	.	1a
[2D	2F	.	2d	.
=39	=39	=39	=39	=39
2D]	1F	0r	2A	2r
2D	.	.	1f	4d
.	.	.	.	4e
2D	1D	.	.	4f
.	.	.	.	4g
2D	.	.	4e	4a
.	.	.	4d	4b
=40	=40	=40	=40	=40
1AA	1E	0r	2c	2cc
.	.	.	1d	2.a
1AA	1E	.	.	.
.	.	.	.	4g
.	.	.	2c#i	2e
=41	=41	=41	=41	=41
2.D	0D	1r	1d	2f
.	.	.	.	2d
4C	.	.	.	.
4BB	.	2r	2r	2.dd
4AA	.	.	.	.
[2GG	.	[2d	[2g	.
.	.	.	.	4dd
=42	=42	=42	=42	=42
2GG]	0r	2d]	2g]	2dd
1G	.	2d	2g	2dd
.	.	2d	2g	2b
2G	.	2B	2g	2b
=43	=43	=43	=43	=43
1A	0r	1c	2e	0a
.	.	.	2e	.
1F	.	1c	1f	.
=44	=44	=44	=44	=44
1G	1r	0B	1.d	2.g
.	.	.	.	4g
1G	2r	.	.	2g
.	[2G	.	2d	2g
=45	=45	=45	=45	=45
1C	2G]	0r	2e	1g
.	2G	.	2c	.
1r	2G	.	2d	1g
.	2E	.	2e	.
=46	=46	=46	=46	=46
2r	1F	2r	0A	1cc
1FF	.	1c	.	.
.	1F	.	.	2r
2FF	.	2c	.	[2c
=47	=47	=47	=47	=47
1AA	0E	1c	2.A	2c]
.	.	.	.	2c
.	.	.	4B	.
1AA	.	1A	1c	1e
=48	=48	=48	=48	=48
1GG	0r	1B	2r	1e
.	.	.	1G	.
1GG	.	1B	.	1d
.	.	.	2G	.
=49	=49	=49	=49	=49
1D	2r	[0Al	2D	1d
.	1F	.	1d	.
2r	.	.	.	1a
[2D	2F	.	2d	.
=50	=50	=50	=50	=50
2D]	1F	0A_	2A	2r
2D	.	.	1f	4d
.	.	.	.	4e
2D	1D	.	.	4f
.	.	.	.	4g
2D	.	.	4e	4a
.	.	.	4d	4b
=51	=51	=51	=51	=51
1AA	1E	0A_	2c	2cc
.	.	.	1d	2.a
1AA	1E	.	.	.
.	.	.	.	4g
.	.	.	2c#i	2e
=52	=52	=52	=52	=52
[0Dl	[0Dl	0A_	[0dl	2f
.	.	.	.	2d
.	.	.	.	2.f
.	.	.	.	4g
=53	=53	=53	=53	=53
00D]	00D]	00A]	00d]	00al
==	==	==	==	==
*-	*-	*-	*-	*-
!!!system-decoration: [*]
!!!RDF**kern: i = editorial accidental
!!!RDF**kern: l = terminal long
!!!ENC: Benjamin Ory
!!!END: 2022/4/16
!!!EED: Benjamin Ory
!!!EEV: 2022/04/16
!!!YEC: Copyright 2022 Benjamin Ory, All Rights Reserved
!!!ONB: Translated from MusicXML on 2022/04/16
